svg/300/sharp/power.svg

<svg xmlns="http://www.w3.org/2000/svg" width="48" height="48" viewBox="0 -960 960 960"><path d="M442.385-185.385h75.23v-84.308l137-147.153v-189.846h-349.23v189.846l137 146.807v84.654Zm-45.384 45.384v-111.462l-137-147.153v-253.46h103.154v-167.923h45.384v167.923h142.922v-167.923h45.384v167.923h103.154v253.46l-137 147.153v111.462H397.001ZM480-396.539Z"/></svg>

<svg xmlns="http://www.w3.org/2000/svg" width="48" height="48" viewBox="0 -960 960 960"><path d="M442.38-185.39h75.24v-84.3l136.99-147.16v-189.84H305.39v189.84l136.99 146.81v84.65ZM397-140v-111.46L260-398.62v-253.46h103.16V-820h45.38v167.92h142.92V-820h45.38v167.92H700v253.46L563-251.46V-140H397Zm83-256.54Z"/></svg>
